X:691
T: Jimmy Lyon's Highland
Z: Piano Box Version by Martin Fleischmann
H: Created 2015-04-10 /  Last Modified 2015-04-21
R: highland fling
M: 4/4
L: 1/8
K: Amaj
"A"A>ag>a e<Ac>A|"D"F>dc>d "E"B<EG>B|"A"A>ag>a e<Ac>A| F>A"E"G>B "A"A<EE>B|
"A"A>ag>a e<Ac>A|"D"F>dc>d "E"B<EG>B| "A"(3Ace a>e f>ec>A | "E"B>AG>B "A"A>ag>f|
"A"e<ce>a "D"f<df>e|"E"d>cB>a  (3gfe (3fga|"A"e<ce>a "D"f>df>a| "E"(3gfe (3dcB (3Ace (3agf|
"A"e<ce>a "D"f<df>e|"E"d>cB>a  g>ee>f| "A"(3efe c>e "D"(3faf d>f|  "E"(3gab (3efg "A"a>fe>c||

